Sources/FrostedUI/Resources/Icons.xcassets/refund32.imageset/refund-32.svg

<svg width="32" height="32" viewBox="0 0 32 32" fill="none" xmlns="http://www.w3.org/2000/svg" data-fui-icon="true">
  <path
    d="M16.124 2.25C8.69433 2.25 4.95109 7.24416 3.75 11.3301V7.75C3.75 7.33579 3.41421 7 3 7C2.58579 7 2.25 7.33579 2.25 7.75V11.75C2.25 12.9857 3.24402 13.9998 4.48535 14L8.42871 14C8.84284 13.9999 9.17871 13.6642 9.17871 13.25C9.17871 12.8358 8.84284 12.5001 8.42871 12.5L4.99805 12.5C5.79184 8.7819 9.07482 3.75 16.124 3.75C23.5892 3.75011 28.25 9.3686 28.25 16C28.25 22.6314 23.5892 28.2499 16.124 28.25C11.0078 28.25 6.89001 25.234 5.0625 21.4258C4.8833 21.0523 4.43594 20.895 4.0625 21.0742C3.6891 21.2534 3.53181 21.7008 3.71094 22.0742C5.77394 26.3733 10.399 29.75 16.124 29.75C24.5062 29.7499 29.75 23.3685 29.75 16C29.75 8.63152 24.5062 2.25011 16.124 2.25ZM16.0264 6.55762C15.6123 6.5578 15.2764 6.89352 15.2764 7.30762V8.19336C12.1768 8.48476 10.5244 10.5653 10.5244 12.4502C10.5245 13.2301 10.7004 13.897 11.0439 14.4551C11.3861 15.0106 11.8649 15.4105 12.3936 15.7061C13.2368 16.1774 14.2875 16.4195 15.2764 16.6113V22.2832C14.1833 22.1589 13.4599 21.7704 12.9766 21.3477C12.3761 20.8222 12.0886 20.1958 11.9639 19.8076C11.8371 19.4134 11.4148 19.1966 11.0205 19.3232C10.6263 19.45 10.4095 19.8723 10.5361 20.2666C10.7161 20.8268 11.1243 21.7199 11.9893 22.4766C12.7451 23.1377 13.81 23.6575 15.2764 23.791L15.2764 24.6768C15.2765 25.0907 15.6124 25.4266 16.0264 25.4268C16.4405 25.4268 16.7762 25.0908 16.7764 24.6768L16.7764 23.79C19.8779 23.4997 21.5282 21.4191 21.5283 19.5342C21.5283 18.7542 21.3524 18.0874 21.0088 17.5293C20.6667 16.9737 20.1879 16.5739 19.6592 16.2783C18.8159 15.8069 17.7652 15.5639 16.7764 15.3721V9.69629C19.1892 9.95526 19.9256 11.4482 20.0439 12.0137C20.1289 12.4188 20.5264 12.6784 20.9316 12.5937C21.3369 12.5088 21.5974 12.1114 21.5127 11.7061C21.2639 10.5178 19.9853 8.46762 16.7764 8.18945V7.30762C16.7764 6.8934 16.4406 6.55762 16.0264 6.55762ZM16.7764 16.8994C17.6235 17.073 18.3574 17.2691 18.9277 17.5879C19.2896 17.7903 19.554 18.0273 19.7314 18.3154C19.9073 18.6011 20.0283 18.9863 20.0283 19.5342C20.0282 20.4811 19.1402 22.0147 16.7764 22.2842V16.8994ZM15.2764 15.083C14.4297 14.9094 13.6962 14.7152 13.126 14.3965C12.7639 14.1941 12.4988 13.9572 12.3213 13.6689C12.1454 13.3833 12.0245 12.9981 12.0244 12.4502C12.0244 11.5042 12.9136 9.96978 15.2764 9.69922V15.083Z"
    fill="currentColor"
  />
</svg>

<svg xmlns="http://www.w3.org/2000/svg" width="32" height="32" fill="none" data-fui-icon="true" viewBox="0 0 32 32"><path fill="currentColor" d="M16.124 2.25c-7.43 0-11.173 4.994-12.374 9.08V7.75a.75.75 0 0 0-1.5 0v4c0 1.236.994 2.25 2.235 2.25H8.43a.75.75 0 0 0 0-1.5H4.998c.794-3.718 4.077-8.75 11.126-8.75C23.589 3.75 28.25 9.369 28.25 16s-4.66 12.25-12.126 12.25c-5.116 0-9.234-3.016-11.061-6.824a.75.75 0 1 0-1.352.648c2.063 4.3 6.688 7.676 12.413 7.676 8.382 0 13.626-6.381 13.626-13.75S24.506 2.25 16.124 2.25m-.098 4.308a.75.75 0 0 0-.75.75v.885c-3.1.292-4.752 2.372-4.752 4.257q.002 1.169.52 2.005c.342.556.82.956 1.35 1.251.843.471 1.893.713 2.882.905v5.672c-1.093-.124-1.816-.513-2.3-.935a3.5 3.5 0 0 1-1.012-1.54.75.75 0 0 0-1.428.459c.18.56.588 1.453 1.453 2.21.756.66 1.821 1.18 3.287 1.314v.886a.75.75 0 0 0 1.5 0v-.887c3.102-.29 4.752-2.37 4.752-4.256q-.002-1.169-.52-2.005c-.341-.555-.82-.955-1.349-1.25-.843-.472-1.894-.715-2.883-.907V9.696c2.413.26 3.15 1.752 3.268 2.318a.75.75 0 0 0 1.469-.308c-.25-1.188-1.528-3.238-4.737-3.517v-.881a.75.75 0 0 0-.75-.75m.75 10.341c.848.174 1.581.37 2.152.689.362.202.626.44.803.727.176.286.297.671.297 1.22 0 .946-.888 2.48-3.252 2.75zm-1.5-1.816c-.846-.174-1.58-.368-2.15-.687-.362-.202-.627-.439-.805-.727-.176-.286-.296-.67-.297-1.219 0-.946.89-2.48 3.252-2.75z"/></svg>
